assets/img/gm-outer.svg

<svg fill="none" height="287" viewBox="0 0 298 287" width="298" xmlns="http://www.w3.org/2000/svg"><g fill="#fff"><path d="m19.8925 124.174.7099 4.806c1.0375 7.025 6.5533 12.54 13.5777 13.578l4.8065.71-4.8065.71c-7.0244 1.037-12.5402 6.553-13.5777 13.577l-.7099 4.807-.7099-4.807c-1.0376-7.024-6.5534-12.54-13.57772-13.577l-4.80654-.71 4.80654-.71c7.02432-1.038 12.54012-6.553 13.57772-13.578z"/><path d="m278.704 126.527.71 4.806c1.038 7.024 6.553 12.54 13.578 13.578l4.806.71-4.806.71c-7.025 1.037-12.54 6.553-13.578 13.577l-.71 4.807-.71-4.807c-1.037-7.024-6.553-12.54-13.577-13.577l-4.807-.71 4.807-.71c7.024-1.038 12.54-6.554 13.577-13.578z"/><path clip-rule="evenodd" d="m132.476 2.13831 12.315-1.515141 3.1 25.192831-7.785.9578-.88-7.1474c-.422-3.4321-.757-6.4441-1.007-9.64599-.082 1.08759-.194 2.21499-.356 3.52789l-1.544 13.7314-6.511.801-4.897-12.9389c-.431-1.1682-.805-2.1638-1.139-3.1284.524 3.0963.921 6.0287 1.335 9.3901l.879 7.1474-7.785.9579-3.1-25.19288 12.315-1.51511 3.157 9.30969c.334.9646.633 1.9335.972 2.9335.05-1.0479.105-2.0604.196-3.0772zm-29.491 19.06939c3.588 7.6099 1.607 13.2732-5.9392 16.8305l-10.7389 5.0623-10.8251-22.9587 10.8357-5.1079c7.4818-3.5269 13.0795-1.4361 16.6675 6.1738zm-14.2606.1012-3.096 1.4593 5.1084 10.8345 3.0961-1.4594c2.9991-1.4138 3.4759-3.4121 1.6058-7.3783s-3.7152-4.87-6.7143-3.4561zm-12.2795 12.8637c5.0746 6.3954 3.9365 13.8514-2.2642 18.7704-6.2285 4.9411-13.7209 4.3319-18.7955-2.0635-5.0525-6.3674-3.9144-13.8235 2.2862-18.7425 6.2007-4.919 13.721-4.3318 18.7735 2.0356zm-14.5187 3.3266c-2.3462 1.8611-2.8196 4.6487-.0053 8.1954 2.8365 3.5747 5.6589 3.7475 8.0051 1.8863s2.8196-4.6487-.0169-8.2234c-2.8143-3.5467-5.6368-3.7196-7.9829-1.8583zm-7.5003 35.3253c-4.9012 6.2597-12.3285 7.4179-18.7574 2.3855-6.4007-5.0106-7.0366-12.526-2.1573-18.7577 4.8792-6.2315 12.3285-7.4179 18.7292-2.4074 6.4289 5.0325 7.0648 12.5479 2.1855 18.7796zm-15.5246-12.1528c-1.8462 2.3579-1.6551 5.1788 1.9102 7.9698 3.5935 2.8129 6.3781 2.3215 8.2243-.0364s1.655-5.1788-1.9383-7.9917c-3.5654-2.791-6.35-2.2996-8.1962.0583zm-13.0772 24.8912c-1.6908.0137-3.037 1.1634-3.8053 2.8505-1.3149 2.8876-.3281 5.4521 3.6954 7.2839 4.2183 1.9205 6.7889 1.0931 8.2368-2.0865 1.0638-2.336.7137-4.0622-.8374-5.4735l-1.9502 4.2827-4.9322-2.2454 5.2598-11.5502c.8379.2247 1.6462.5144 2.4249.8689 6.8141 3.1023 9.2557 10.1287 6.0053 17.2665-3.2061 7.0402-10.2335 9.9122-17.6642 6.5292-7.3657-3.3531-9.9107-10.1523-6.4387-17.7769 2.9549-6.4888 7.9756-8.8252 13.5517-7.7359zm234.5129 4.1968 9.698 3.7466c1.947.7693 3.928 1.5256 5.948 2.3814-.8-1.9457-1.6-3.8914-2.367-5.85l-1.728-4.4154 6.441-2.5205 7.926 20.2512-5.644 2.208-9.922-3.927c-1.901-.749-3.862-1.551-5.861-2.4533.826 2.0123 1.639 3.9913 2.431 6.0163l1.962 5.013-6.54 2.559-8.122-20.7485zm-220.9601 110.7733-9.7888-3.503c-1.9661-.72-3.965-1.427-6.0053-2.232.8482 1.925 1.6965 3.85 2.5119 5.789l1.8381 4.371-6.3761 2.681-8.4303-20.046 5.5873-2.35 10.0169 3.678c1.9194.701 3.8993 1.454 5.9206 2.306-.8758-1.991-1.7379-3.949-2.581-5.953l-2.0868-4.962 6.4746-2.723 8.6375 20.539zm15.0955 11.602-7.9701 5.462-7.9713 16.18-4.9179-7.175 1.7197-3.166c1.0238-1.912 1.9811-3.605 3.0083-5.26-1.8736.42-3.738.79-5.8301 1.143l-3.4934.578-4.8575-7.087 17.7871-1.859 7.9701-5.462zm1.5882 29.516 1.7421-1.787-8.4505-8.236 4.6539-4.774 8.4504 8.237 1.6675-1.711-9.1398-8.908 4.828-4.953 14.9097 14.533-17.7195 18.175-14.9097-14.532 4.8281-4.952zm26.9888-1.751-.3644 11.036 4.468-1.39 3.1857-5.03 6.8075 4.311-13.5823 21.444-6.8075-4.311 5.3223-8.403-11.9791 4.188-7.8616-4.978 13.0514-4.015-.0114-17.773zm24.6576 12.982 2.05 10.283c.343 1.708.634 3.246.845 4.794.893-2.86 1.818-5.595 2.895-8.656l1.373-3.9 7.399 2.604-8.428 23.942-7.903-2.781-1.949-10.248c-.29-1.538-.529-3.436-.734-5.322-.953 3.028-1.959 5.886-3.107 9.148l-1.3735 3.901-7.3989-2.604 8.428-23.943zm15.333 18.401c.867-8.117 6.908-12.635 14.778-11.794 7.906.845 12.82 6.533 11.952 14.65-.864 8.082-6.904 12.6-14.774 11.759-7.871-.841-12.82-6.533-11.956-14.615zm12.683 7.809c2.978.318 5.27-1.337 5.751-5.839.485-4.537-1.406-6.64-4.383-6.958-2.978-.318-5.271 1.337-5.756 5.875-.481 4.501 1.41 6.604 4.388 6.922zm25.41-18.576 1.057 7.123c.507 3.42.916 6.423 1.246 9.618.055-1.09.14-2.219.269-3.536l1.202-13.765 6.489-.962 5.217 12.813c.46 1.157.858 2.143 1.216 3.099-.601-3.082-1.071-6.004-1.567-9.354l-1.057-7.123 7.759-1.151 3.724 25.108-12.273 1.82-3.387-9.228c-.358-.956-.681-1.917-1.045-2.909-.024 1.049-.054 2.062-.119 3.081l-.493 9.804-12.273 1.82-3.723-25.108zm37.249 4.638c-3.777-7.518-1.938-13.229 5.517-16.974l10.609-5.329 11.396 22.681-10.705 5.378c-7.391 3.712-13.039 1.762-16.817-5.756zm14.254-.457 3.059-1.537-5.378-10.703-3.059 1.536c-2.963 1.488-3.389 3.498-1.421 7.416 1.969 3.919 3.836 4.776 6.799 3.288zm11.951-13.165c-5.231-6.268-4.278-13.749 1.799-18.82 6.104-5.094 13.609-4.67 18.84 1.598 5.209 6.24 4.255 13.722-1.822 18.793-6.077 5.07-13.609 4.669-18.817-1.571zm14.431-3.684c2.3-1.919 2.704-4.717-.197-8.193-2.924-3.504-5.75-3.607-8.049-1.688s-2.704 4.717.22 8.22c2.901 3.476 5.727 3.579 8.026 1.661zm6.625-35.499c4.745-6.379 12.141-7.721 18.693-2.848 6.522 4.85 7.344 12.348 2.62 18.698-4.723 6.35-12.141 7.72-18.664 2.87-6.551-4.872-7.372-12.37-2.649-18.72zm15.82 11.765c1.788-2.403 1.527-5.218-2.106-7.92-3.662-2.723-6.434-2.163-8.221.24s-1.527 5.218 2.135 7.941c3.633 2.702 6.405 2.142 8.192-.261zm12.458-25.211c1.69-.056 3.007-1.239 3.733-2.945 1.242-2.919.192-5.458-3.877-7.189-4.264-1.815-6.814-.923-8.182 2.292-1.005 2.361-.612 4.078.974 5.45l1.843-4.33 4.986 2.122-4.969 11.678c-.843-.204-1.659-.473-2.446-.808-6.889-2.932-9.506-9.895-6.435-17.111 3.03-7.119 9.983-10.165 17.496-6.969 7.447 3.169 10.161 9.902 6.881 17.611-2.792 6.561-7.753 9.022-13.355 8.072zm-28.388-121.1187 8.103-5.2618 8.371-15.9772 4.738 7.2951-1.797 3.1228c-1.071 1.8856-2.071 3.5546-3.139 5.1831 1.884-.3729 3.757-.6964 5.857-.9974l3.507-.4917 4.68 7.2055-17.828 1.4168-8.103 5.2618zm-.859-29.5486-1.786 1.7435 8.245 8.4424-4.77 4.6575-8.245-8.4424-1.709 1.6688 8.917 9.131-4.948 4.8319-14.547-14.8953 18.162-17.7336 14.547 14.8954-4.949 4.8319zm-27.022 1.0854.637-11.0234-4.501 1.2793-3.309 4.9491-6.698-4.4781 14.109-21.1004 6.698 4.478-5.528 8.2683 12.079-3.8894 7.735 5.1715-13.146 3.6902-.43 17.767zm-24.33-13.5914-1.792-10.3312c-.301-1.7163-.552-3.2611-.724-4.8141-.965 2.8369-1.958 5.5485-3.112 8.5807l-1.47 3.8652-7.331-2.7881 9.024-23.72424 7.831 2.97813 1.692 10.29311c.252 1.545.443 3.4485.601 5.3394 1.028-3.0035 2.106-5.8358 3.335-9.0679l1.47-3.8652 7.332 2.7881-9.025 23.7242zm-14.868-18.7809c-1.069 8.0935-7.22 12.4595-15.067 11.4233-7.882-1.0409-12.654-6.8491-11.584-14.9427 1.064-8.05819 7.215-12.42418 15.062-11.38792 7.847 1.03618 12.654 6.8491 11.589 14.90732zm-12.485-8.12144c-2.969-.39209-5.302 1.20564-5.895 5.69424-.598 4.5239 1.24 6.6725 4.209 7.0646 2.97.3921 5.303-1.2057 5.9-5.7296.593-4.4886-1.245-6.63716-4.214-7.02924z" fill-rule="evenodd"/></g></svg>

<svg width="298" height="287" viewBox="0 0 298 287" fill="none" xmlns="http://www.w3.org/2000/svg">
<path d="M19.8925 124.174L20.6024 128.98C21.6399 136.005 27.1557 141.52 34.1801 142.558L38.9866 143.268L34.1801 143.978C27.1557 145.015 21.6399 150.531 20.6024 157.555L19.8925 162.362L19.1826 157.555C18.145 150.531 12.6292 145.015 5.60488 143.978L0.79834 143.268L5.60488 142.558C12.6292 141.52 18.145 136.005 19.1826 128.98L19.8925 124.174Z" fill="white"/>
<path d="M278.704 126.527L279.414 131.333C280.452 138.357 285.967 143.873 292.992 144.911L297.798 145.621L292.992 146.331C285.967 147.368 280.452 152.884 279.414 159.908L278.704 164.715L277.994 159.908C276.957 152.884 271.441 147.368 264.417 146.331L259.61 145.621L264.417 144.911C271.441 143.873 276.957 138.357 277.994 131.333L278.704 126.527Z" fill="white"/>
<path fill-rule="evenodd" clip-rule="evenodd" d="M132.476 2.13831L144.791 0.623169L147.891 25.816L140.106 26.7738L139.226 19.6264C138.804 16.1943 138.469 13.1823 138.219 9.98041C138.137 11.068 138.025 12.1954 137.863 13.5083L136.319 27.2397L129.808 28.0407L124.911 15.1018C124.48 13.9336 124.106 12.938 123.772 11.9734C124.296 15.0697 124.693 18.0021 125.107 21.3635L125.986 28.5109L118.201 29.4688L115.101 4.27592L127.416 2.76081L130.573 12.0705C130.907 13.0351 131.206 14.004 131.545 15.004C131.595 13.9561 131.65 12.9436 131.741 11.9268L132.476 2.13831ZM102.985 21.2077C106.573 28.8176 104.592 34.4809 97.0458 38.0382L86.3069 43.1005L75.4818 20.1418L86.3175 15.0339C93.7993 11.507 99.397 13.5978 102.985 21.2077ZM88.7244 21.3089L85.6284 22.7682L90.7368 33.6027L93.8329 32.1433C96.832 30.7295 97.3088 28.7312 95.4387 24.765C93.5686 20.7988 91.7235 19.895 88.7244 21.3089ZM76.4449 34.1726C81.5195 40.568 80.3814 48.024 74.1807 52.943C67.9522 57.8841 60.4598 57.2749 55.3852 50.8795C50.3327 44.5121 51.4708 37.056 57.6714 32.137C63.8721 27.218 71.3924 27.8052 76.4449 34.1726ZM61.9262 37.4992C59.58 39.3603 59.1066 42.1479 61.9209 45.6946C64.7574 49.2693 67.5798 49.4421 69.926 47.5809C72.2722 45.7197 72.7456 42.9322 69.9091 39.3575C67.0948 35.8108 64.2723 35.6379 61.9262 37.4992ZM54.4259 72.8245C49.5247 79.0842 42.0974 80.2424 35.6685 75.21C29.2678 70.1994 28.6319 62.684 33.5112 56.4523C38.3904 50.2208 45.8397 49.0344 52.2404 54.0449C58.6693 59.0774 59.3052 66.5928 54.4259 72.8245ZM38.9013 60.6717C37.0551 63.0296 37.2462 65.8505 40.8115 68.6415C44.405 71.4544 47.1896 70.963 49.0358 68.6051C50.882 66.2472 50.6908 63.4263 47.0975 60.6134C43.5321 57.8224 40.7475 58.3138 38.9013 60.6717ZM25.8241 85.5629C24.1333 85.5766 22.7871 86.7263 22.0188 88.4134C20.7039 91.301 21.6907 93.8655 25.7142 95.6973C29.9325 97.6178 32.5031 96.7904 33.951 93.6108C35.0148 91.2748 34.6647 89.5486 33.1136 88.1373L31.1634 92.42L26.2312 90.1746L31.491 78.6244C32.3289 78.8491 33.1372 79.1388 33.9159 79.4933C40.73 82.5956 43.1716 89.622 39.9212 96.7598C36.7151 103.8 29.6877 106.672 22.257 103.289C14.8913 99.9359 12.3463 93.1367 15.8183 85.5121C18.7732 79.0233 23.7939 76.6869 29.37 77.7762L25.8241 85.5629ZM260.337 89.7597L270.035 93.5063C271.982 94.2756 273.963 95.0319 275.983 95.8877C275.183 93.942 274.383 91.9963 273.616 90.0377L271.888 85.6223L278.329 83.1018L286.255 103.353L280.611 105.561L270.689 101.634C268.788 100.885 266.827 100.083 264.828 99.1807C265.654 101.193 266.467 103.172 267.259 105.197L269.221 110.21L262.681 112.769L254.559 92.0205L260.337 89.7597ZM39.3769 200.533L29.5881 197.03C27.622 196.31 25.6231 195.603 23.5828 194.798C24.431 196.723 25.2793 198.648 26.0947 200.587L27.9328 204.958L21.5567 207.639L13.1264 187.593L18.7137 185.243L28.7306 188.921C30.65 189.622 32.6299 190.375 34.6512 191.227C33.7754 189.236 32.9133 187.278 32.0702 185.274L29.9834 180.312L36.458 177.589L45.0955 198.128L39.3769 200.533ZM54.4724 212.135L46.5023 217.597L38.531 233.777L33.6131 226.602L35.3328 223.436C36.3566 221.524 37.3139 219.831 38.3411 218.176C36.4675 218.596 34.6031 218.966 32.511 219.319L29.0176 219.897L24.1601 212.81L41.9472 210.951L49.9173 205.489L54.4724 212.135ZM56.0606 241.651L57.8027 239.864L49.3522 231.628L54.0061 226.854L62.4565 235.091L64.124 233.38L54.9842 224.472L59.8122 219.519L74.7219 234.052L57.0024 252.227L42.0927 237.695L46.9208 232.743L56.0606 241.651ZM83.0494 239.9L82.685 250.936L87.153 249.546L90.3387 244.516L97.1462 248.827L83.5639 270.271L76.7564 265.96L82.0787 257.557L70.0996 261.745L62.238 256.767L75.2894 252.752L75.278 234.979L83.0494 239.9ZM107.707 252.882L109.757 263.165C110.1 264.873 110.391 266.411 110.602 267.959C111.495 265.099 112.42 262.364 113.497 259.303L114.87 255.403L122.269 258.007L113.841 281.949L105.938 279.168L103.989 268.92C103.699 267.382 103.46 265.484 103.255 263.598C102.302 266.626 101.296 269.484 100.148 272.746L98.7745 276.647L91.3756 274.043L99.8036 250.1L107.707 252.882ZM123.04 271.283C123.907 263.166 129.948 258.648 137.818 259.489C145.724 260.334 150.638 266.022 149.77 274.139C148.906 282.221 142.866 286.739 134.996 285.898C127.125 285.057 122.176 279.365 123.04 271.283ZM135.723 279.092C138.701 279.41 140.993 277.755 141.474 273.253C141.959 268.716 140.068 266.613 137.091 266.295C134.113 265.977 131.82 267.632 131.335 272.17C130.854 276.671 132.745 278.774 135.723 279.092ZM161.133 260.516L162.19 267.639C162.697 271.059 163.106 274.062 163.436 277.257C163.491 276.167 163.576 275.038 163.705 273.721L164.907 259.956L171.396 258.994L176.613 271.807C177.073 272.964 177.471 273.95 177.829 274.906C177.228 271.824 176.758 268.902 176.262 265.552L175.205 258.429L182.964 257.278L186.688 282.386L174.415 284.206L171.028 274.978C170.67 274.022 170.347 273.061 169.983 272.069C169.959 273.118 169.929 274.131 169.864 275.15L169.371 284.954L157.098 286.774L153.375 261.666L161.133 260.516ZM198.382 265.154C194.605 257.636 196.444 251.925 203.899 248.18L214.508 242.851L225.904 265.532L215.199 270.91C207.808 274.622 202.16 272.672 198.382 265.154ZM212.636 264.697L215.695 263.16L210.317 252.457L207.258 253.993C204.295 255.481 203.869 257.491 205.837 261.409C207.806 265.328 209.673 266.185 212.636 264.697ZM224.587 251.532C219.356 245.264 220.309 237.783 226.386 232.712C232.49 227.618 239.995 228.042 245.226 234.31C250.435 240.55 249.481 248.032 243.404 253.103C237.327 258.173 229.795 257.772 224.587 251.532ZM239.018 247.848C241.318 245.929 241.722 243.131 238.821 239.655C235.897 236.151 233.071 236.048 230.772 237.967C228.473 239.886 228.068 242.684 230.992 246.187C233.893 249.663 236.719 249.766 239.018 247.848ZM245.643 212.349C250.388 205.97 257.784 204.628 264.336 209.501C270.858 214.351 271.68 221.849 266.956 228.199C262.233 234.549 254.815 235.919 248.292 231.069C241.741 226.197 240.92 218.699 245.643 212.349ZM261.463 224.114C263.251 221.711 262.99 218.896 259.357 216.194C255.695 213.471 252.923 214.031 251.136 216.434C249.349 218.837 249.609 221.652 253.271 224.375C256.904 227.077 259.676 226.517 261.463 224.114ZM273.921 198.903C275.611 198.847 276.928 197.664 277.654 195.958C278.896 193.039 277.846 190.5 273.777 188.769C269.513 186.954 266.963 187.846 265.595 191.061C264.59 193.422 264.983 195.139 266.569 196.511L268.412 192.181L273.398 194.303L268.429 205.981C267.586 205.777 266.77 205.508 265.983 205.173C259.094 202.241 256.477 195.278 259.548 188.062C262.578 180.943 269.531 177.897 277.044 181.093C284.491 184.262 287.205 190.995 283.925 198.704C281.133 205.265 276.172 207.726 270.57 206.776L273.921 198.903ZM245.533 77.7843L253.636 72.5225L262.007 56.5453L266.745 63.8404L264.948 66.9632C263.877 68.8488 262.877 70.5178 261.809 72.1463C263.693 71.7734 265.566 71.4499 267.666 71.1489L271.173 70.6572L275.853 77.8627L258.025 79.2795L249.922 84.5413L245.533 77.7843ZM244.674 48.2357L242.888 49.9792L251.133 58.4216L246.363 63.0791L238.118 54.6367L236.409 56.3055L245.326 65.4365L240.378 70.2684L225.831 55.3731L243.993 37.6395L258.54 52.5349L253.591 57.3668L244.674 48.2357ZM217.652 49.3211L218.289 38.2977L213.788 39.577L210.479 44.5261L203.781 40.048L217.89 18.9476L224.588 23.4256L219.06 31.6939L231.139 27.8045L238.874 32.976L225.728 36.6662L225.298 54.4332L217.652 49.3211ZM193.322 35.7297L191.53 25.3985C191.229 23.6822 190.978 22.1374 190.806 20.5844C189.841 23.4213 188.848 26.1329 187.694 29.1651L186.224 33.0303L178.893 30.2422L187.917 6.51796L195.748 9.49609L197.44 19.7892C197.692 21.3342 197.883 23.2377 198.041 25.1286C199.069 22.1251 200.147 19.2928 201.376 16.0607L202.846 12.1955L210.178 14.9836L201.153 38.7078L193.322 35.7297ZM178.454 16.9488C177.385 25.0423 171.234 29.4083 163.387 28.3721C155.505 27.3312 150.733 21.523 151.803 13.4294C152.867 5.37121 159.018 1.00522 166.865 2.04148C174.712 3.07766 179.519 8.89058 178.454 16.9488ZM165.969 8.82736C163 8.43527 160.667 10.033 160.074 14.5216C159.476 19.0455 161.314 21.1941 164.283 21.5862C167.253 21.9783 169.586 20.3805 170.183 15.8566C170.776 11.368 168.938 9.21944 165.969 8.82736Z" fill="white"/>
</svg>
